X: 131481
T: McDonagh's Polka
S: B.Breathnach: "Ceol Rince na hEireann" II/109 (gan ainm) 
Z: B.Black
L: 1/8
M: 2/4
R: polka
K: D
d/B/|: AF A2|BG B2|cA Bc/d/|ed B/c/d/B/|
AF A>c|BG B>d|cA A/B/c/d/|ed d>B :|
Ad f>a|ge f2|Ad f/g/f/d/|ed B/c/d/B/|
Ad f>a|ge f2|A/B/d/e/ f/e/d/e/|fd d>B :|
